static/assets/img/icons/theme/devices/video-camera.svg

<svg height="24" viewBox="0 0 24 24" width="24" xmlns="http://www.w3.org/2000/svg"><g fill="none" fill-rule="evenodd"><path d="m0 0h24v24h-24z" opacity="0"/><g fill="#000"><rect height="12" rx="2" width="13" x="2" y="6"/><path d="m22 8.4142119v7.1715729c0 .5522847-.4477153 1-1 1-.2652167 0-.5195707-.105357-.7071071-.2928936l-3.5857865-3.5857899c-.3905241-.3905245-.3905238-1.0236895.0000007-1.4142136l3.5857865-3.58578293c.3905244-.3905241 1.0236894-.39052379 1.4142135.00000069.1875362.18753635.2928929.44189012.2928929.70710644z" opacity=".3"/></g></g></svg>

<svg width="24px" height="24px" viewBox="0 0 24 24" version="1.1" xmlns="http://www.w3.org/2000/svg" xmlns:xlink="http://www.w3.org/1999/xlink">
    <title>Icon For Video-camera</title>
    <g stroke="none" stroke-width="1" fill="none" fill-rule="evenodd">
        <rect opacity="0" x="0" y="0" width="24" height="24"></rect>
        <rect fill="#000000" x="2" y="6" width="13" height="12" rx="2"></rect>
        <path d="M22,8.4142119 L22,15.5857848 C22,16.1380695 21.5522847,16.5857848 21,16.5857848 C20.7347833,16.5857848 20.4804293,16.4804278 20.2928929,16.2928912 L16.7071064,12.7071013 C16.3165823,12.3165768 16.3165826,11.6834118 16.7071071,11.2928877 L20.2928936,7.70710477 C20.683418,7.31658067 21.316583,7.31658098 21.7071071,7.70710546 C21.8946433,7.89464181 22,8.14899558 22,8.4142119 Z" fill="#000000" opacity="0.3"></path>
    </g>
</svg>
